!!!COM: Henri Reber
!!!CNT: Francais
!!!TXO: Francais
!!!OTL: Ninette
!!!LYR: Alexis de Valon
!!!ODT: 1850/
!!!ENC: Jacob Pegg
!!!YOR: Romantic French Song 1830-1870, David Tunley, ed., New York: Garland Publishing, Inc., 1995, vol. 3
!!NB: Vocal melody and text only encoded.
!!NB: First instance of melodic material only encoded.
**kern	**silbe
*clef G2	*
*k[b-e-a-d-]	*
*M6/8	*
=7	=7
4r	.
8r	.
8r	.
{8a-	{Sur
8b-	les
=8	=8
4.cc	flots
4dd-	de
(24dd-	Sor-
24cc	|
24bn)	|
=9	=9
4.cc	-ren-
8a-}	-te,}
{8a-	{Quand
8b-	ma
=10	=10
(8cc	bar-
4ee-)	-que
4dd-	in-
(24dd-	-do-
24cc	|
24bn)	|
=11	=11
4.cc	-len-
8a-}	-te,}
{8cc	{Dans
8dd-	la
=12	=12
4.ee-	nuit
(8b-	trans-
8cc)	|
8b-	-pa-
=13	=13
4.b-	-ren-
8a-}	-te}
8r	.
{8a-	{Me
=14	=14
4a-	ber-
8a-	-ce
(8cc-	tout
16dd-q	|
16cc-q	|
8b-)	|
8a-	re^-
=15	=15
[4.b-	-veur,
4b-]}	|}
{8b-	{Aux
=16	=16
(8b-	vents
8cc)	|
8b-	du
(8a-	soir
8f)	|
8cc	je
=17	=17
4.b-	jet-
8g}	-te}
{(8b-	{Ton
8ee-)	|
=18	=18
(8ddn	doux
8ff)	|
8cc	nom
(8b-	ma
8f)	|
8cc	Ni-
=19	=19
4.b-	-net-
8g}	-te,}
{8b-	{Et
8cc	l'e/-
=20	=20
4.a-	-cho
(8b-	ne
8dd-)	|
8cc	re/-
=21	=21
4cc	-pe\-
8cc	-te
4b-	Qu'un
8b-	mur-
=22	=22
4.a-	-mu-
4b-	-re
8b-	mo-
=23	=23
4.cc}	-queur.}
8r	.
{8cc	{Et
8dd-	l'e/-
=24	=24
4.b-	-cho
(8cc	ne
8ee-)	|
8dd-	re/-
=25	=25
4cc	-pe\-
8b-	-te
4b-	Qu'un
8dd-	mur-
=26	=26
([4cc	-mu-
16cc]	|
32dd-	|
32cc)	|
8b-	-re
8r	.
(16b-	mo-
32cc	|
32b-)	|
=27	=27
4.a-}	-queur.}
8r	.
4r	.
*-	*-
